X:12005
T:Lilting Banshee, The
T:Butcher's March, The
R:Jig
C:Trad.
O:Ireland
M:6/8
L:1/8
Q:1/8=120
K:Ador
"Am"EAA EAA|"Em"BAB G2A|Bee edB|"G"def gfg|
"Am"eAA eAA|"Em"BAB G2A|Bee edB|"D"dBA "Am"A3:|
|:"Am"eaa age|"G"dBA G2A|"Em"Bee edB|"G"def gfg|
"Am"eaa age|"G"dBA G2A|"Em"Bee edB|"D"dBA "Am"A3:|

